src/icons/main-edit.svg

<svg enable-background="new 0 0 14 14" viewBox="0 0 14 14" xmlns="http://www.w3.org/2000/svg"><path d="m2.3 9.3 2.5 2.5 6.6-6.8-2.4-2.4zm-2.3 4.7 3.9-1.4-2.5-2.4zm12.2-14c-.5 0-.9.2-1.2.5l-1.4 1.5 2.4 2.4 1.5-1.4c.3-.3.5-.8.5-1.2 0-1-.8-1.8-1.8-1.8z" fill="#4d5969"/></svg>

<?xml version="1.0" encoding="utf-8"?>
<!-- Generator: Adobe Illustrator 20.1.0, SVG Export Plug-In . SVG Version: 6.00 Build 0)  -->
<svg version="1.1" id="Layer_1" xmlns="http://www.w3.org/2000/svg" xmlns:xlink="http://www.w3.org/1999/xlink" x="0px" y="0px"
	 viewBox="0 0 14 14" style="enable-background:new 0 0 14 14;" xml:space="preserve">
<style type="text/css">
	.st0{fill:#4D5969;}
</style>
<title>HDL/Icon/Standard/edit</title>
<desc>Created with Sketch.</desc>
<g id="Colors">
	<g id="Main-Icons" transform="translate(-121.000000, -641.000000)">
		<g id="Edit" transform="translate(100.000000, 623.000000)">
			<g id="HDL_x2F_Icon_x2F_Standard_x2F_edit" transform="translate(21.000000, 18.000000)">
				<path id="Shape" class="st0" d="M2.3,9.3l2.5,2.5L11.4,5L9,2.6L2.3,9.3z M0,14l3.9-1.4l-2.5-2.4L0,14z M12.2,0
					c-0.5,0-0.9,0.2-1.2,0.5L9.6,2L12,4.4L13.5,3C13.8,2.7,14,2.2,14,1.8C14,0.8,13.2,0,12.2,0z"/>
			</g>
		</g>
	</g>
</g>
</svg>
